assets/icons/application/_.svg

<?xml version="1.0" encoding="UTF-8" standalone="no"?>
<svg
   viewBox="0 0 24 24"
   height="24"
   id="svg7384"
   version="1.1"
   width="24"
   sodipodi:docname="application.svg"
   inkscape:version="1.2 (1:1.2.1+202207142221+cd75a1ee6d)"
   xmlns:inkscape="http://www.inkscape.org/namespaces/inkscape"
   xmlns:sodipodi="http://sodipodi.sourceforge.net/DTD/sodipodi-0.dtd"
   xmlns="http://www.w3.org/2000/svg"
   xmlns:svg="http://www.w3.org/2000/svg"
   xmlns:rdf="http://www.w3.org/1999/02/22-rdf-syntax-ns#"
   xmlns:cc="http://creativecommons.org/ns#"
   xmlns:dc="http://purl.org/dc/elements/1.1/">
  <sodipodi:namedview
     id="namedview21"
     pagecolor="#ffffff"
     bordercolor="#666666"
     borderopacity="1.0"
     inkscape:pageshadow="2"
     inkscape:pageopacity="0.0"
     inkscape:pagecheckerboard="0"
     showgrid="true"
     inkscape:snap-page="true"
     inkscape:zoom="14"
     inkscape:cx="12.392857"
     inkscape:cy="17.142857"
     inkscape:window-width="1920"
     inkscape:window-height="1043"
     inkscape:window-x="0"
     inkscape:window-y="0"
     inkscape:window-maximized="1"
     inkscape:current-layer="svg7384"
     inkscape:showpageshadow="2"
     inkscape:deskcolor="#d1d1d1">
    <inkscape:grid
       type="xygrid"
       id="grid837" />
    <inkscape:grid
       type="xygrid"
       id="grid922"
       dotted="true"
       spacingx="0.5"
       spacingy="0.5"
       empspacing="10" />
  </sodipodi:namedview>
  <metadata
     id="metadata20854">
    <rdf:RDF>
      <cc:Work
         rdf:about="">
        <dc:format>image/svg+xml</dc:format>
        <dc:type
           rdf:resource="http://purl.org/dc/dcmitype/StillImage" />
      </cc:Work>
    </rdf:RDF>
  </metadata>
  <defs
     id="defs7386">
    <linearGradient
       id="linearGradient5606"
       inkscape:swatch="solid">
      <stop
         id="stop5608"
         offset="0"
         style="stop-color:#000000;stop-opacity:1;" />
    </linearGradient>
    <linearGradient
       id="linearGradient4526"
       inkscape:swatch="solid">
      <stop
         id="stop4528"
         offset="0"
         style="stop-color:#ffffff;stop-opacity:1;" />
    </linearGradient>
    <linearGradient
       id="linearGradient3600-4"
       inkscape:swatch="gradient">
      <stop
         id="stop3602-7"
         offset="0"
         style="stop-color:#f4f4f4;stop-opacity:1" />
      <stop
         id="stop3604-6"
         offset="1"
         style="stop-color:#dbdbdb;stop-opacity:1" />
    </linearGradient>
  </defs>
  <path
     id="rect653"
     style="fill:#808080;fill-opacity:1;fill-rule:evenodd;stroke-width:15.1181;stroke-linecap:round;stroke-linejoin:round"
     d="M 10.267578 2 C 9.5941804 3.4237558 8.9415588 4.8658894 8.3066406 6.328125 C 7.6717226 7.7903606 7.0272048 9.3311096 6.3730469 10.947266 C 5.9886296 11.925782 5.5939551 12.951056 5.1953125 14 L 3.5 14 C 2.6690016 14 2 14.669002 2 15.5 C 2 16.330998 2.6690016 17 3.5 17 L 4.0742188 17 C 3.4989194 18.560671 2.9025979 20.209313 2.2734375 22 L 6.0546875 22 L 6.8632812 19.691406 C 7.1518806 18.902569 7.4298594 18.102999 7.6992188 17.294922 L 7.7910156 17 L 16.048828 17 L 16.300781 17.785156 C 16.517507 18.419533 16.736023 19.051924 16.964844 19.662109 C 17.253441 20.431709 17.531424 21.211163 17.800781 22 L 21.726562 22 C 21.097356 20.20918 20.491309 18.56077 19.902344 17 L 20.5 17 C 21.330998 17 22 16.330998 22 15.5 C 22 14.669002 21.330998 14 20.5 14 L 18.769531 14 C 18.366784 12.951199 17.966329 11.925657 17.570312 10.947266 C 16.935395 9.3311096 16.300933 7.7903606 15.666016 6.328125 C 15.031096 4.8658894 14.376522 3.4237558 13.703125 2 L 10.267578 2 z M 11.914062 5.8671875 C 12.337342 6.8484245 12.836865 8.0790713 13.414062 9.5605469 C 13.950379 10.937091 14.504712 12.424093 15.074219 14 L 8.7519531 14 C 9.3202123 12.425897 9.8664664 10.948143 10.384766 9.5898438 C 10.961963 8.127608 11.471545 6.8869045 11.914062 5.8671875 z M 3.5 15 L 20.5 15 C 20.777 15 21 15.223 21 15.5 C 21 15.777 20.777 16 20.5 16 L 3.5 16 C 3.2230006 16 3 15.777 3 15.5 C 3 15.223 3.2230006 15 3.5 15 z " />
  <g
     id="layer9"
     label="status"
     style="display:inline;stroke-width:0.8"
     transform="matrix(1.25,0,0,1.25,-589.25025,-139.25)" />
  <g
     id="layer2"
     style="display:inline;stroke-width:0.8"
     transform="matrix(1.25,0,0,1.25,-288,-598)" />
  <g
     id="layer4"
     style="display:inline;stroke-width:0.8"
     transform="matrix(1.25,0,0,1.25,-288,-598)" />
  <g
     id="g1812"
     style="display:inline;stroke-width:0.8"
     transform="matrix(1.25,0,0,1.25,-288,-598)" />
  <g
     id="g6217"
     style="display:inline;stroke-width:0.8"
     transform="matrix(1.25,0,0,1.25,-288,-598)" />
  <g
     id="layer3"
     style="display:inline;stroke-width:0.8"
     transform="matrix(1.25,0,0,1.25,-288,-598)" />
  <g
     id="g1833"
     style="display:inline;stroke-width:0.8"
     transform="matrix(1.25,0,0,1.25,-288,-598)" />
</svg>

<svg height="24" width="24" xmlns="http://www.w3.org/2000/svg"><path style="fill:gray;fill-opacity:1;stroke-width:15.1181;stroke-linecap:round;stroke-linejoin:round" d="M10.268 2a147.78 147.78 0 0 0-1.961 4.328 200.412 200.412 0 0 0-1.934 4.62c-.384.978-.779 2.003-1.178 3.052H3.5c-.831 0-1.5.669-1.5 1.5S2.669 17 3.5 17h.574a347.01 347.01 0 0 0-1.8 5h3.78l.81-2.309c.288-.788.566-1.588.835-2.396L7.791 17h8.258l.252.785c.217.635.435 1.267.664 1.877.288.77.566 1.55.836 2.338h3.926c-.63-1.79-1.236-3.44-1.825-5h.598c.831 0 1.5-.669 1.5-1.5s-.669-1.5-1.5-1.5h-1.73a184.03 184.03 0 0 0-1.2-3.053A141.782 141.782 0 0 0 13.703 2h-3.435zm1.646 3.867c.423.981.923 2.212 1.5 3.694A193.1 193.1 0 0 1 15.074 14H8.752a262.242 262.242 0 0 1 1.633-4.41 122.993 122.993 0 0 1 1.53-3.723zM3.5 15h17a.499.499 0 1 1 0 1h-17a.499.499 0 1 1 0-1z"/></svg>
